X:0
T:Dimensions of Dementia
M:C|
L:1/8
C:© Paul Gitlitz 2007
K:Gm
"Gm"G,B,A,B, G,B,A,B,|G,B,A,B, "Bb"DF=EF|"Gm"G,B,A,B, G,B,A,B,|"Bb"DFCD "Gm"B,DA,D|!
"Gm"G,B,A,B, G,B,A,B,|G,B,A,B, "Bb"DF=EF|"Gm"G,B,A,B, "Bb"DF=EF|"Gm"DGDC B,A,G,2:|!
|:"Gm"G^FGD "Bb"=F=EFD|"F"AcBc  "Gm"dBG2|GFGD "Bb"F=EFD|"Gm"dDcD "Gm"BDAD|!
"Gm"G^FGD "Bb"=F=EFD|"F"AcBc  "Gm"dBGB|dBcA BGAF|"Bb"DFCD "Gm"B,DG,D:|!
